!!!OTL: STEH NUR AUF STEH NUR AUF
!!!ARE: Europa, Mitteleuropa, Deutschland, Schlesien
!!!SCT: E1603
!!!YEM: Copyright 1995, estate of Helmut Schaffrath.
**kern
*ICvox
*Ivox
*M4/4
*k[b-]
*F:
{8f
8a
=1
4cc
8cc
8cc
4cc
8dd
8cc
=2
4b-
8b-
8b-
4b-}
{8cc
8b-
=3
4.a
8g
8f
8dd
8cc
8b-
=4
2b-
4a}
{4cc
=5
4.dd
8cc
4dd
8dd
8ee
=6
8ff
8ee
8ff
8ee
4cc
8r}
{8b-
=7
4.a
8f
8cc
8a
8b-
8g
=8
2g
4f}
==
!!!AGN: Staende -, Handwerker -, Gesellen - Lied, Wanderschaft
!!!ONB: ESAC (Essen Associative Code) Database: ERK3
!!!AMT: simple quadruple
!!!AIN: vox
!!!EED: Helmut Schaffrath
!!!EEV: 1.0
*-
